src/assets/icons/download.svg

<svg width="45" height="34" viewBox="0 0 45 34" fill="none" xmlns="http://www.w3.org/2000/svg">
<path d="M45.0028 16.9962C45.0122 20.5684 43.8533 24.0457 41.7028 26.8981C41.5843 27.0557 41.436 27.1884 41.2663 27.2887C41.0966 27.3889 40.9087 27.4548 40.7136 27.4825C40.5184 27.5102 40.3197 27.4991 40.1288 27.45C39.9378 27.4009 39.7585 27.3147 39.6009 27.1962C39.4433 27.0778 39.3106 26.9295 39.2103 26.7598C39.11 26.59 39.0442 26.4022 39.0165 26.207C38.9888 26.0119 38.9999 25.8131 39.049 25.6222C39.0981 25.4313 39.1843 25.2519 39.3028 25.0944C41.0631 22.7623 42.0114 19.918 42.0028 16.9962C42.0028 13.4158 40.5804 9.98203 38.0487 7.45029C35.517 4.91855 32.0832 3.49623 28.5028 3.49623C24.9223 3.49623 21.4886 4.91855 18.9568 7.45029C16.4251 9.98203 15.0028 13.4158 15.0028 16.9962C15.0028 17.3941 14.8447 17.7756 14.5634 18.0569C14.2821 18.3382 13.9006 18.4962 13.5028 18.4962C13.1049 18.4962 12.7234 18.3382 12.4421 18.0569C12.1608 17.7756 12.0028 17.3941 12.0028 16.9962C12.002 15.4825 12.2096 13.9759 12.6196 12.5187C12.4153 12.4962 12.209 12.4962 12.0028 12.4962C9.61581 12.4962 7.32662 13.4444 5.6388 15.1323C3.95097 16.8201 3.00276 19.1093 3.00276 21.4962C3.00276 23.8832 3.95097 26.1724 5.6388 27.8602C7.32662 29.548 9.61581 30.4962 12.0028 30.4962H16.5028C16.9006 30.4962 17.2821 30.6543 17.5634 30.9356C17.8447 31.2169 18.0028 31.5984 18.0028 31.9962C18.0028 32.3941 17.8447 32.7756 17.5634 33.0569C17.2821 33.3382 16.9006 33.4962 16.5028 33.4962H12.0028C10.3531 33.4966 8.72105 33.1568 7.20859 32.4982C5.69613 31.8395 4.33572 30.876 3.21233 29.6679C2.08895 28.4599 1.22671 27.0332 0.679477 25.4769C0.132244 23.9206 -0.0882323 22.2683 0.031818 20.623C0.151868 18.9777 0.609867 17.3748 1.37721 15.9144C2.14455 14.4541 3.20475 13.1677 4.4916 12.1355C5.77845 11.1033 7.26431 10.3475 8.85636 9.91532C10.4484 9.48315 12.1125 9.38389 13.7446 9.62373C15.4066 6.29965 18.1422 3.634 21.5081 2.05854C24.8741 0.483085 28.6733 0.0901006 32.2905 0.943241C35.9077 1.79638 39.1309 3.84568 41.4381 6.7592C43.7453 9.67272 45.0013 13.2798 45.0028 16.9962ZM31.9415 24.935L28.5028 28.3756V16.9962C28.5028 16.5984 28.3447 16.2169 28.0634 15.9356C27.7821 15.6543 27.4006 15.4962 27.0028 15.4962C26.6049 15.4962 26.2234 15.6543 25.9421 15.9356C25.6608 16.2169 25.5028 16.5984 25.5028 16.9962V28.3756L22.064 24.935C21.7825 24.6535 21.4008 24.4954 21.0028 24.4954C20.6047 24.4954 20.223 24.6535 19.9415 24.935C19.66 25.2164 19.5019 25.5982 19.5019 25.9962C19.5019 26.3943 19.66 26.776 19.9415 27.0575L25.9415 33.0575C26.0808 33.1969 26.2463 33.3076 26.4283 33.3831C26.6104 33.4586 26.8056 33.4974 27.0028 33.4974C27.1999 33.4974 27.3951 33.4586 27.5772 33.3831C27.7593 33.3076 27.9247 33.1969 28.064 33.0575L34.064 27.0575C34.3455 26.776 34.5036 26.3943 34.5036 25.9962C34.5036 25.5982 34.3455 25.2164 34.064 24.935C33.7825 24.6535 33.4008 24.4954 33.0028 24.4954C32.6047 24.4954 32.223 24.6535 31.9415 24.935Z" fill="#9B8477"/>
</svg>

<svg width="45" height="34" fill="none" xmlns="http://www.w3.org/2000/svg"><path d="M45.003 16.996c.01 3.572-1.15 7.05-3.3 9.902a1.503 1.503 0 0 1-2.493-.138 1.502 1.502 0 0 1 .093-1.666 13.377 13.377 0 0 0 2.7-8.098 13.5 13.5 0 0 0-27 0 1.5 1.5 0 0 1-3 0c-.001-1.513.207-3.02.617-4.477-.205-.023-.411-.023-.617-.023a9 9 0 1 0 0 18h4.5a1.5 1.5 0 0 1 0 3h-4.5a12.001 12.001 0 1 1 1.742-23.872 16.5 16.5 0 0 1 31.258 7.372zm-13.061 7.939l-3.44 3.44V16.997a1.5 1.5 0 0 0-3 0v11.38l-3.438-3.441a1.5 1.5 0 1 0-2.122 2.123l6 6a1.502 1.502 0 0 0 2.122 0l6-6a1.5 1.5 0 1 0-2.122-2.123z" fill="#9B8477"/></svg>
